src/svg/thumbsup.svg

<svg height="16" width="16" xmlns="http://www.w3.org/2000/svg" viewBox="0 0 16 16">
  <path d="M14 6H12s0 0-0.02 0l0.02-0.98c0-1.3-1.17-5.02-3-5.02-0.58 0-1.17 0.3-1.56 0.77-0.36 0.41-0.5 0.91-0.42 1.41 0.25 1.48 0.28 2.28-0.63 3.28-1 1.09-1.48 1.55-2.39 1.55H2C0.94 7 0 7.94 0 9v4c0 1.06 0.94 2 2 2h1.72l1.44 0.86c0.16 0.09 0.33 0.14 0.52 0.14h6.33c1.13 0 2.84-0.5 3-1.88l0.98-5.95c0.02-0.08 0.02-0.14 0.02-0.2-0.03-1.17-0.84-1.97-2-1.97z m0 8c-0.05 0.69-1.27 1-2 1H5.67l-1.67-1V8c1.36 0 2.11-0.75 3.13-1.88 1.23-1.36 1.14-2.56 0.88-4.13-0.08-0.5 0.5-1 1-1 0.83 0 2 2.73 2 4l-0.02 1.03c0 0.69 0.33 0.97 1.02 0.97h2c0.63 0 0.98 0.36 1 1l-1 6z" />
</svg>

<?xml version="1.0" encoding="UTF-8" standalone="no"?>
<svg width="16px" height="16px" viewBox="0 0 16 16" version="1.1" xmlns="http://www.w3.org/2000/svg" xmlns:xlink="http://www.w3.org/1999/xlink">
    <!-- Generator: Sketch 3.7.1 (28215) - http://www.bohemiancoding.com/sketch -->
    <title>thumbsup</title>
    <desc>Created with Sketch.</desc>
    <defs></defs>
    <g id="Octicons" stroke="none" stroke-width="1" fill="none" fill-rule="evenodd">
        <g id="thumbsup" fill="#000000">
            <path d="M14,14 C13.95,14.69 12.73,15 12,15 L5.67,15 L4,14 L4,8 C5.36,8 6.11,7.25 7.13,6.12 C8.36,4.76 8.27,3.56 8.01,1.99 C7.93,1.49 8.51,0.99 9.01,0.99 C9.84,0.99 11.01,3.72 11.01,4.99 L10.99,6.02 C10.99,6.71 11.32,6.99 12.01,6.99 L14.01,6.99 C14.64,6.99 14.99,7.35 15.01,7.99 L14.01,13.99 L14,14 Z M14,6 L12,6 L11.98,6 L12,5.02 C12,3.72 10.83,0 9,0 C8.42,0 7.83,0.3 7.44,0.77 C7.08,1.18 6.94,1.68 7.02,2.18 C7.27,3.66 7.3,4.46 6.39,5.46 C5.39,6.55 4.91,7.01 4,7.01 L2,7.01 C0.94,7 0,7.94 0,9 L0,13 C0,14.06 0.94,15 2,15 L3.72,15 L5.16,15.86 C5.32,15.95 5.49,16 5.68,16 L12.01,16 C13.14,16 14.85,15.5 15.01,14.12 L15.99,8.17 C16.01,8.09 16.01,8.03 16.01,7.97 C15.98,6.8 15.17,6 14.01,6 L14,6 Z" id="Shape"></path>
        </g>
    </g>
</svg>
